!!!SOCIAL_FUNCTION:	war songs
!!!PDT:	1929
!!!OTL: No_132_Song_for_the_Enemy's_Country.krn
!!!REG: Southwest
!!!LANG: Non-Tone
!!!LING_GROUP: Uto-Aztecan
**kern
*staff1
=1-
*clefF4
*k[b-e-a-d-g-]
*M3/4
[2e-\
8e-\L]
8d-\J
=2
4e-\
8d-\L
8B-\J
8B-\
8r
=3!|:
4.e-\
8d-\
8e-\L
16.d-\L
32B-\JJk
=4
[2B-\
8B-\L]
8A-\J
=5
4B-\
8A-\L
[8G-\J
8G-\]
16r
16d-\
=6
4d-\
4B-\
8c\L
8B-\J
=7
4A-\
8F\L
[8E-\J
4E-\]
=8||
*M5/8
8A-\L
8A-\
8G-\
8.B-\
16B-\Jk
=9||
*M3/4
2A-\
(8A-\L
8F\J)
=10
4A-\
2A-\
=11
2.A-\
==:|!
*-
